Papirus/22x22/panel/octopi-indicator.svg

<?xml version="1.0" encoding="UTF-8" standalone="no"?>
<svg xmlns:dc="http://purl.org/dc/elements/1.1/" xmlns:cc="http://creativecommons.org/ns#" xmlns:rdf="http://www.w3.org/1999/02/22-rdf-syntax-ns#" xmlns:svg="http://www.w3.org/2000/svg" xmlns="http://www.w3.org/2000/svg" version="1.0" width="22" height="22" id="svg2817">
    <metadata id="metadata57">
        <rdf:RDF>
            <cc:Work rdf:about="">
                <dc:format>
                    image/svg+xml
                </dc:format>
                <dc:type rdf:resource="http://purl.org/dc/dcmitype/StillImage"/>
                <dc:title/>
            </cc:Work>
        </rdf:RDF>
    </metadata>
    <path style="fill:#ffffff;fill-opacity:1" id="rect4102" d="m 5,9 3.1e-6,0 0,7 c 0,2 3.1e-6,2.999588 1.5,2.999794 C 8,19 8,18 8.0000031,16 8,18 8,19 9.5000031,18.999794 11.000006,18.999588 11,18 11.000003,16 c -3e-6,2 3e-6,2.999588 1.5,2.999794 C 14,19 14,18 14.000003,16 c -3e-6,2 3e-6,2.999588 1.5,2.999794 C 17,19 17.000003,18 17.000003,16 l 0,-7 -0.002,0 C 17,6 16,3 11,2.9997937 6,2.9995874 5,6 5,9 Z M 8.5,7.9997937 c 0.831,0 1.5,0.669 1.5,1.5 0,0.8310003 -0.669,1.5000003 -1.5,1.5000003 -0.831,0 -1.5,-0.669 -1.5,-1.5000003 0,-0.831 0.669,-1.5 1.5,-1.5 z m 6,0 c 0.831,0 1.5,0.669 1.5,1.5 0,0.8310003 -0.669,1.5000003 -1.5,1.5000003 -0.831,0 -1.5,-0.669 -1.5,-1.5000003 0,-0.831 0.669,-1.5 1.5,-1.5 z"/>
</svg>

<?xml version="1.0" encoding="UTF-8" standalone="no"?>
<svg id="svg2817" xmlns:rdf="http://www.w3.org/1999/02/22-rdf-syntax-ns#" xmlns="http://www.w3.org/2000/svg" height="22" width="22" version="1.0" xmlns:cc="http://creativecommons.org/ns#" xmlns:dc="http://purl.org/dc/elements/1.1/">
 <metadata id="metadata57">
  <rdf:RDF>
   <cc:Work rdf:about="">
    <dc:format>image/svg+xml</dc:format>
    <dc:type rdf:resource="http://purl.org/dc/dcmitype/StillImage"/>
    <dc:title/>
   </cc:Work>
  </rdf:RDF>
 </metadata>
 <path id="rect4102" fill="#fff" d="m5 9h0.0000031v7c0 2 0.0000031 2.9996 1.5 2.9998 1.5 0 1.5-1 1.5-3 0 2 0 3 1.5 3s1.5-1 1.5-3c-0.000003 2 0.000003 2.9996 1.5 2.9998 1.5 0 1.5-1 1.5-3-0.000003 2 0.000003 2.9996 1.5 2.9998 1.5 0 1.5-1 1.5-3v-7h-0.002c0.002-3-0.998-6-5.998-6.0002s-6 3.0002-6 6.0002zm3.5-1.0002c0.831 0 1.5 0.669 1.5 1.5s-0.669 1.5-1.5 1.5-1.5-0.669-1.5-1.5 0.669-1.5 1.5-1.5zm6 0c0.831 0 1.5 0.669 1.5 1.5s-0.669 1.5-1.5 1.5-1.5-0.669-1.5-1.5 0.669-1.5 1.5-1.5z"/>
</svg>
